svg/emoji_u2194.svg

<?xml version="1.0" encoding="UTF-8"?>
<svg width="128" height="128" enable-background="new 0 0 128 128" xmlns="http://www.w3.org/2000/svg"><linearGradient id="a" x1="64" x2="64" y1="4.25" y2="124.41" gradientUnits="userSpaceOnUse"><stop stop-color="#40C4FF" offset="0"/><stop stop-color="#2DB5F9" offset=".3517"/><stop stop-color="#0091EA" offset="1"/></linearGradient><path d="m116 124h-104c-4.42 0-8-3.58-8-8v-104c0-4.42 3.58-8 8-8h104c4.42 0 8 3.58 8 8v104c0 4.42-3.58 8-8 8z" fill="url(#a)"/><g opacity=".2"><path d="m116 7c2.76 0 5 2.24 5 5v104c0 2.76-2.24 5-5 5h-104c-2.76 0-5-2.24-5-5v-104c0-2.76 2.24-5 5-5h104m0-3h-104c-4.42 0-8 3.58-8 8v104c0 4.42 3.58 8 8 8h104c4.42 0 8-3.58 8-8v-104c0-4.42-3.58-8-8-8z" fill="#424242"/></g><g opacity=".2"><path d="m43.98 36c2.06 0 4.02 1.62 4.02 4.01v13.99c0 1.1 0.9 2 2 2h28c1.1 0 2-0.9 2-2v-13.99c0-2.39 1.96-4.01 4.02-4.01 0.9 0 1.82 0.31 2.61 1l24 23.99c1.82 1.59 1.82 4.43 0 6.02l-24 23.99c-0.79 0.69-1.71 1-2.61 1-2.06 0-4.02-1.62-4.02-4.01v-13.99c0-1.1-0.9-2-2-2h-28c-1.1 0-2 0.9-2 2v13.99c0 2.39-1.96 4.01-4.02 4.01-0.9 0-1.82-0.31-2.61-1l-24-23.99c-1.82-1.59-1.82-4.43 0-6.02l24-23.99c0.78-0.69 1.7-1 2.61-1m0-3c-1.68 0-3.3 0.62-4.59 1.74l-0.08 0.07-24 24c-1.47 1.32-2.31 3.21-2.31 5.19s0.84 3.87 2.31 5.19l23.94 23.93 0.07 0.07 0.08 0.07c1.27 1.12 2.9 1.74 4.58 1.74 3.87 0 7.02-3.14 7.02-7.01v-12.99h26v12.99c0 3.86 3.15 7.01 7.02 7.01 1.68 0 3.3-0.62 4.59-1.74l0.14-0.14 23.94-23.93c1.47-1.33 2.31-3.21 2.31-5.19s-0.84-3.87-2.31-5.19l-24.07-24.07c-1.29-1.12-2.92-1.74-4.6-1.74-3.87 0-7.02 3.14-7.02 7.01v12.99h-26v-12.99c0-3.87-3.15-7.01-7.02-7.01z" fill="#424242"/></g><path d="m110.63 60.99-24-23.99c-2.58-2.27-6.63-0.43-6.63 3.01v13.99c0 1.1-0.9 2-2 2h-28c-1.1 0-2-0.9-2-2v-13.99c0-3.44-4.05-5.27-6.63-3.01l-24 23.99c-1.82 1.59-1.82 4.43 0 6.02l24 23.99c2.59 2.26 6.63 0.43 6.63-3.01v-13.99c0-1.1 0.9-2 2-2h28c1.1 0 2 0.9 2 2v13.99c0 3.44 4.05 5.27 6.63 3.01l24-23.99c1.83-1.59 1.83-4.43 0-6.02z" fill="#FAFAFA"/></svg>

<svg width="128" height="128" style="enable-background:new 0 0 128 128;" xmlns="http://www.w3.org/2000/svg" xmlns:xlink="http://www.w3.org/1999/xlink">
  <g>
    <linearGradient id="SVGID_1_" gradientUnits="userSpaceOnUse" x1="64" x2="64" y1="4.25" y2="124.4088">
      <stop offset="0" style="stop-color:#40C4FF"/>
      <stop offset="0.3517" style="stop-color:#2DB5F9"/>
      <stop offset="1" style="stop-color:#0091EA"/>
    </linearGradient>
    <path d="M116,124H12c-4.42,0-8-3.58-8-8V12c0-4.42,3.58-8,8-8h104c4.42,0,8,3.58,8,8v104 C124,120.42,120.42,124,116,124z" style="fill:url(#SVGID_1_);"/>
    <g style="opacity:0.2;">
      <path d="M116,7c2.76,0,5,2.24,5,5v104c0,2.76-2.24,5-5,5H12c-2.76,0-5-2.24-5-5V12c0-2.76,2.24-5,5-5H116 M116,4H12c-4.42,0-8,3.58-8,8v104c0,4.42,3.58,8,8,8h104c4.42,0,8-3.58,8-8V12C124,7.58,120.42,4,116,4L116,4z" style="fill:#424242;"/>
    </g>
    <g style="opacity:0.2;">
      <path d="M43.98,36c2.06,0,4.02,1.62,4.02,4.01V54c0,1.1,0.9,2,2,2h28c1.1,0,2-0.9,2-2V40.01 c0-2.39,1.96-4.01,4.02-4.01c0.9,0,1.82,0.31,2.61,1l24,23.99c1.82,1.59,1.82,4.43,0,6.02L86.63,91c-0.79,0.69-1.71,1-2.61,1 C81.96,92,80,90.38,80,87.99V74c0-1.1-0.9-2-2-2H50c-1.1,0-2,0.9-2,2v13.99c0,2.39-1.96,4.01-4.02,4.01c-0.9,0-1.82-0.31-2.61-1 l-24-23.99c-1.82-1.59-1.82-4.43,0-6.02l24-23.99C42.15,36.31,43.07,36,43.98,36 M43.98,33L43.98,33c-1.68,0-3.3,0.62-4.59,1.74 l-0.08,0.07l-0.07,0.07L15.31,58.81C13.84,60.13,13,62.02,13,64c0,1.98,0.84,3.87,2.31,5.19l23.94,23.93l0.07,0.07l0.08,0.07 C40.67,94.38,42.3,95,43.98,95c3.87,0,7.02-3.14,7.02-7.01V75h26v12.99c0,3.86,3.15,7.01,7.02,7.01c1.68,0,3.3-0.62,4.59-1.74 l0.07-0.07l0.07-0.07l23.94-23.93c1.47-1.33,2.31-3.21,2.31-5.19c0-1.98-0.84-3.87-2.31-5.19L88.76,34.88l-0.07-0.07l-0.07-0.07 C87.33,33.62,85.7,33,84.02,33C80.15,33,77,36.14,77,40.01V53H51V40.01C51,36.14,47.85,33,43.98,33L43.98,33L43.98,33z" style="fill:#424242;"/>
    </g>
    <path d="M110.63,60.99L86.63,37C84.05,34.73,80,36.57,80,40.01V54c0,1.1-0.9,2-2,2H50c-1.1,0-2-0.9-2-2 V40.01c0-3.44-4.05-5.27-6.63-3.01l-24,23.99c-1.82,1.59-1.82,4.43,0,6.02l24,23.99c2.59,2.26,6.63,0.43,6.63-3.01V74 c0-1.1,0.9-2,2-2h28c1.1,0,2,0.9,2,2v13.99c0,3.44,4.05,5.27,6.63,3.01l24-23.99C112.46,65.42,112.46,62.58,110.63,60.99z" style="fill:#FAFAFA;"/>
  </g>
</svg>
